!!!COM: Bach, Johann Sebastian
!!!CDT: 1685/3//-1750/7/28/
!!!OTL@@DE: Wenn wir in hoechsten Noeten sein
!!!AGN: 4-Part Chorale; Chorale Prelude
!!!SCT: BH 068
!!!SCT: BWV 431
**harm	**root	**kern	**kern	**kern	**kern
!	!	!bass	!tenor	!alto	!soprno
*	*Iorgan	*Iorgan	*Iorgan	*Iorgan	*Iorgan
*	*	*clefF4	*clefF4	*clefG2	*clefG2
*M4/4	*M4/4	*M4/4	*M4/4	*M4/4	*M4/4
*met(c)	*met(c)	*met(c)	*met(c)	*met(c)	*met(c)
*MM60	*MM60	*MM60	*MM60	*MM60	*MM60
*k[b-e-a-d-g-c-]	*k[b-e-a-d-g-c-]	*k[b-e-a-d-g-c-]	*k[b-e-a-d-g-c-]	*k[b-e-a-d-g-c-]	*k[b-e-a-d-g-c-]
*G-:	*G-:	*G-:	*G-:	*G-:	*G-:
I	4FF	8G-	8B-	[4d-	4g-
.	.	8F	8A-	.	.
=1	=1	=1	=1	=1	=1
viiob/V	4BB	4E-	4G-	8d-]	4g-
.	.	.	.	8c	.
Vb	8CC	8F	8d-	[4d-	4a-
V7	8CC	8D-	8c-y	.	.
I	4FF	4G-	8B-	8d-]	4b-
.	.	.	8c-	8e-	.
V	4CC	4D-	4d-	4f	8a-
.	.	.	.	.	8b-
=2	=2	=2	=2	=2	=2
IVb	8BB-	8E-	8G-	8g-	4cc-
V7b	8CC	8F	8d-	[8a-	.
I	4FF	4G-	4d-	8a-]	4b-
.	.	.	.	[8g-	.
ii7b	8GG	4C-	8e-	8g-]	4.a-
iib	8GG	.	8c-	16f	.
.	.	.	.	16e-	.
V	4CC	4D-	8A-	4f	.
.	.	.	16d-	.	8a-
.	.	.	16c-	.	.
=3	=3	=3	=3	=3	=3
I;	2FF;	2GG-;	2B-;	2d-;	2g-;
r	4r	4r	4r	4r	4r
I	4FF	8G-	4d-	[4g-	4b-
.	.	8F-	.	.	.
=4	=4	=4	=4	=4	=4
IVb	8BB-	8E-	8e-	8g-]	4cc-
V7b	8CC	8F	8d-	[8a-	.
I	4FF	4G-	4d-	8a-]	4b-
.	.	.	.	[8g-	.
V7b/V	8GG	8C	8e-	8g-]	4a-
V	8CC	8D-	4d-	8f	.
viio/V	4BB	4E-	.	4e-	4g-
.	.	.	8c	.	.
!!linebreak: 2
=5	=5	=5	=5	=5	=5
V	4CC	8D-	4d-	4A-	4f
.	.	8C-y	.	.	.
Ib	4FF	8BB-	4G-	4d-	4g-
.	.	8GG-	.	.	.
V;	4CC;	4D-;	4F;	4d-;	4a-;
iii	4AA	4BB-	4B-	8f	4dd-
.	.	.	.	8g	.
=6	=6	=6	=6	=6	=6
ii	8GG	4AA-	8e-	8a-	4cc-
viioD7/vi	8CC#	.	8d	8f	.
vi	4DD	8E-	4e-	8g-	4b-
.	.	8D-	.	8f	.
Vb/V	4GG	4C	4A-	[4e-	8a-
.	.	.	.	.	8g-
V	4CC	4D-	4A-	8e-]	4f
.	.	.	.	[8d-	.
=7	=7	=7	=7	=7	=7
I	4FF	4GG-	4B-	8d-]	4g-
.	.	.	.	16e-	.
.	.	.	.	16d-	.
V/V	4GG	4AA-	8A-	4c	4e-
.	.	.	8G-	.	.
V;	4CC;	4D-;	4F;	4A-;	4d-;
I	4FF	4GG-	4d-	8g-	4b-
.	.	.	.	8f-	.
=8	=8	=8	=8	=8	=8
ii	4GG	4AA-	4c-	8e-	4cc-
.	.	.	.	8f	.
Ib	4FF	8BB-	[4d-	[4g-	4b-
.	.	8C-	.	.	.
V	4CC	4D-	8.d-]	8g-]	4a-
.	.	.	.	[8f	.
.	.	.	16c-	.	.
vi	8DD	4E-	8B-	8f]	4g-
IVb	8BB-	.	8c-	16e-	.
.	.	.	.	16f	.
=9	=9	=9	=9	=9	=9
Ib	4FF	8BB-	4d-	4.g-	4b-
.	.	8C-	.	.	.
V	4CC	4D-	8.d-	.	4a-
.	.	.	.	8f	.
.	.	.	16c-	.	.
I;	4FF;	4GG-;	4B-;	4d-;	4g-;
==	==	==	==	==	==
*-	*-	*-	*-	*-	*-
!!chor2scor: -l 2 -s 0.6 -o %b.pmx
!!!YEC: Copyright 1994, David Huron
!!!YEC: Changes/Additions Copyright 2001 by Craig Stuart Sapp
!!!license: GNU General Public License (http://www.gnu.org/copyleft/gpl.html)
!!!SMA: 371 Bach Chorales, edited by Ludwig Erk, C.F. Peters
!!!PDT: 1850, 1865
!!!ONB: Harmony and Root analysis done manually
